X: 146
T:Muiñeira do Abrente
M:6/8
L:1/8
Q:200
C:X. Estévez
R:Muiñeira
K:C
c AFA |: G2c AFA | G2c AFA | GEG FDA| GCc AFA|
G2c AFA |G2c AFA | GEG FDG |1 C2c AFA :|2 C3 AGA |: F2E GFG |
E2D CDE | FGA BcB | "~"A2G AGA |"~"F2E GFG | E2D CB,C |
DEF GAB |1 c3 AGA :|2 c2  ||

